epam-assets/icon-sources/18/internal-logo/invite.svg

<svg width="18" height="18" viewBox="0 0 18 18" fill="none" xmlns="http://www.w3.org/2000/svg">
<g id="18/internal-logo/invite">
<path id="icon" fill-rule="evenodd" clip-rule="evenodd" d="M14.0625 9C15.4031 9 16.5 10.1344 16.5 11.5312V12.0938C16.5 13.4906 15.4125 14.625 14.0625 14.625H9.65625C8.31563 14.625 7.125 13.4906 7.125 12.0938V11.8125C7.125 11.5031 7.37813 11.25 7.6875 11.25C7.99687 11.25 8.25 11.5031 8.25 11.8125V12.0938C8.25 12.8719 8.93437 13.5 9.65625 13.5H14.0625C14.7844 13.5 15.375 12.8719 15.375 12.0938V11.5312C15.375 10.7531 14.7844 10.125 14.0625 10.125H11.4469C11.1375 10.125 10.8844 9.87187 10.8844 9.5625C10.8844 9.25313 11.1375 9 11.4469 9H14.0625ZM6.17813 13.5C6.4875 13.5 6.74063 13.7531 6.74063 14.0625C6.74063 14.3719 6.4875 14.625 6.17813 14.625H3.9375C2.59687 14.625 1.5 13.4906 1.5 12.0938V11.5312C1.5 10.1344 2.5875 9 3.9375 9H8.34375C9.68437 9 10.875 10.1344 10.875 11.5312V11.8125C10.875 12.1219 10.6219 12.375 10.3125 12.375C10.0031 12.375 9.75 12.1219 9.75 11.8125V11.5312C9.75 10.7531 9.06563 10.125 8.34375 10.125H3.9375C3.21563 10.125 2.625 10.7531 2.625 11.5312V12.0938C2.625 12.8719 3.21563 13.5 3.9375 13.5H6.17813ZM12.1875 4.125C11.4656 4.125 10.875 4.71563 10.875 5.4375C10.875 6.15937 11.4656 6.75 12.1875 6.75C12.9094 6.75 13.5 6.15937 13.5 5.4375C13.5 4.71563 12.9094 4.125 12.1875 4.125ZM12.1875 7.875C10.8469 7.875 9.75 6.77813 9.75 5.4375C9.75 4.09687 10.8469 3 12.1875 3C13.5281 3 14.625 4.09687 14.625 5.4375C14.625 6.77813 13.5281 7.875 12.1875 7.875ZM5.8125 4.125C5.09063 4.125 4.5 4.71563 4.5 5.4375C4.5 6.15937 5.09063 6.75 5.8125 6.75C6.53438 6.75 7.125 6.15937 7.125 5.4375C7.125 4.71563 6.53438 4.125 5.8125 4.125ZM5.8125 7.875C4.47187 7.875 3.375 6.77813 3.375 5.4375C3.375 4.09687 4.47187 3 5.8125 3C7.15312 3 8.25 4.09687 8.25 5.4375C8.25 6.77813 7.15312 7.875 5.8125 7.875Z" fill="#6C6F80"/>
</g>
</svg>

<svg xmlns="http://www.w3.org/2000/svg" width="18" height="18" fill="none" viewBox="0 0 18 18">
  <path fill="#6C6F80" fill-rule="evenodd" d="M14.063 9c1.34 0 2.437 1.134 2.437 2.531v.563c0 1.397-1.088 2.531-2.438 2.531H9.657c-1.34 0-2.531-1.134-2.531-2.531v-.281c0-.31.253-.563.563-.563.309 0 .562.253.562.563v.28c0 .779.684 1.407 1.406 1.407h4.406c.722 0 1.313-.628 1.313-1.406v-.563c0-.778-.59-1.406-1.313-1.406h-2.615a.564.564 0 0 1-.563-.563c0-.309.253-.562.563-.562h2.616Zm-7.885 4.5c.31 0 .563.253.563.563a.564.564 0 0 1-.563.562h-2.24c-1.341 0-2.438-1.134-2.438-2.531v-.563C1.5 10.134 2.587 9 3.938 9h4.406c1.34 0 2.531 1.134 2.531 2.531v.281c0 .31-.253.563-.563.563a.564.564 0 0 1-.562-.563v-.28c0-.779-.684-1.407-1.406-1.407H3.938c-.722 0-1.313.628-1.313 1.406v.563c0 .778.59 1.406 1.313 1.406h2.24Zm6.01-9.375c-.722 0-1.313.59-1.313 1.313 0 .721.59 1.312 1.313 1.312.721 0 1.312-.59 1.312-1.313 0-.721-.59-1.312-1.313-1.312Zm0 3.75A2.445 2.445 0 0 1 9.75 5.437 2.445 2.445 0 0 1 12.188 3a2.445 2.445 0 0 1 2.437 2.438 2.445 2.445 0 0 1-2.438 2.437Zm-6.376-3.75c-.721 0-1.312.59-1.312 1.313 0 .721.59 1.312 1.313 1.312.721 0 1.312-.59 1.312-1.313 0-.721-.59-1.312-1.313-1.312Zm0 3.75a2.445 2.445 0 0 1-2.437-2.438A2.445 2.445 0 0 1 5.813 3 2.445 2.445 0 0 1 8.25 5.438a2.445 2.445 0 0 1-2.438 2.437Z" clip-rule="evenodd"/>
</svg>
